vendor/laravel/sail/art/logo.svg

<svg viewBox="0 0 294 69" fill="none" xmlns="http://www.w3.org/2000/svg">
    <style>
        #sail { fill: #000 } @media (prefers-color-scheme:dark) { #sail { fill: #fff } }
    </style>
    <mask id="mask" style="mask-type:luminance" maskUnits="userSpaceOnUse" x="2" y="2" width="65" height="65">
        <path d="M34.3 66.3C51.9731 66.3 66.3 51.9732 66.3 34.3C66.3 16.6269 51.9731 2.30005 34.3 2.30005C16.6269 2.30005 2.3 16.6269 2.3 34.3C2.3 51.9732 16.6269 66.3 34.3 66.3Z" fill="white"/>
    </mask>
    <g mask="url(#mask)">
        <path d="M2.3 2.30005H66.3V66.3H2.3V2.30005Z" fill="#38BDF7"/>
        <path d="M60.3 53L34.3 13V66.3H60.3V53Z" fill="#0D4A6E"/>
        <path d="M10.3 55.4001V66.3H31.6V26.3L10.3 55.4001Z" fill="#E0F2FE"/>
    </g>
    <path id="sail" d="M98.9 44.4H108V48.7H94V19.2H98.9V44.4ZM125.3 29.1H129.9V48.7H125.3V46C124.7 47 123.8 47.7999 122.7 48.2999C121.6 48.8999 120.4 49.0999 119.2 49.0999C117.7 49.0999 116.3 48.7999 115.1 48.2999C113.9 47.7999 112.8 47 111.9 46C111 45 110.3 43.9 109.8 42.7C109.3 41.5 109.1 40.1 109.1 38.7C109.1 37.3 109.3 35.9999 109.8 34.7999C110.3 33.5999 111 32.4 111.9 31.5C112.8 30.5 113.9 29.8 115.1 29.2C116.3 28.7 117.7 28.4 119.2 28.4C120.4 28.4 121.5 28.7 122.7 29.2C123.8 29.8 124.7 30.5 125.3 31.5V29.1ZM125.3 38.9C125.3 38.1 125.2 37.3 124.9 36.5C124.6 35.7 124.2 35.1 123.7 34.5C123.2 33.9 122.6 33.5 121.9 33.2C121.2 32.9 120.4 32.7 119.5 32.7C118.6 32.7 117.8 32.9 117.1 33.2C116.4 33.5 115.8 34 115.3 34.5C114.8 35.1 114.4 35.7 114.1 36.5C113.8 37.3 113.7 38.1 113.7 38.9C113.7 39.7 113.8 40.4999 114.1 41.2999C114.4 42.0999 114.8 42.6999 115.3 43.2999C115.8 43.8999 116.4 44.2999 117.1 44.5999C117.8 44.8999 118.6 45.0999 119.5 45.0999C120.4 45.0999 121.2 44.8999 121.9 44.5999C122.6 44.2999 123.2 43.7999 123.7 43.2999C124.2 42.6999 124.6 42.0999 124.9 41.2999C125.1 40.5999 125.3 39.8 125.3 38.9ZM162.8 29.1H167.4V48.7H162.8V46C162.2 47 161.3 47.7999 160.2 48.2999C159.1 48.8999 157.9 49.0999 156.7 49.0999C155.2 49.0999 153.8 48.7999 152.6 48.2999C151.4 47.7999 150.3 47 149.4 46C148.5 45 147.8 43.9 147.3 42.7C146.8 41.5 146.6 40.1 146.6 38.7C146.6 37.3 146.8 35.9999 147.3 34.7999C147.8 33.5999 148.5 32.4 149.4 31.5C150.3 30.5 151.4 29.8 152.6 29.2C153.8 28.7 155.2 28.4 156.7 28.4C157.9 28.4 159 28.7 160.2 29.2C161.3 29.8 162.2 30.5 162.8 31.5V29.1ZM162.8 38.9C162.8 38.1 162.7 37.3 162.4 36.5C162.1 35.7 161.7 35.1 161.2 34.5C160.7 33.9 160.1 33.5 159.4 33.2C158.7 32.9 157.9 32.7 157 32.7C156.1 32.7 155.3 32.9 154.6 33.2C153.9 33.5 153.3 34 152.8 34.5C152.3 35.1 151.9 35.7 151.6 36.5C151.3 37.3 151.2 38.1 151.2 38.9C151.2 39.7 151.3 40.4999 151.6 41.2999C151.9 42.0999 152.3 42.6999 152.8 43.2999C153.3 43.8999 153.9 44.2999 154.6 44.5999C155.3 44.8999 156.1 45.0999 157 45.0999C157.9 45.0999 158.7 44.8999 159.4 44.5999C160.1 44.2999 160.7 43.7999 161.2 43.2999C161.7 42.6999 162.1 42.0999 162.4 41.2999C162.6 40.5999 162.8 39.8 162.8 38.9ZM213.4 19.2V48.7H218V19.2H213.4ZM133.5 48.7H138.1V33.5999H146V29.1H133.5V48.7ZM185.9 29.1L180.1 44.0999L174.3 29.1H169.6L177.2 48.7H183L190.6 29.1H185.9ZM210.4 40.5999H195.1C195.1 42.2999 196.8 45.5999 200.9 45.5999C204.4 45.5999 206.8 42.5 206.8 42.5L209.9 44.9C207.1 47.9 204.8 49.2 201.3 49.2C194.9 49.2 190.6 45.2 190.6 38.9C190.6 33.2 195.1 28.6 200.7 28.6C206.9 28.6 211.2 34.0999 210.4 40.5999ZM206.2 37.2C206.2 36.8 205.6 32.2 200.6 32.2C195.6 32.2 195.1 36.8 195.1 37.2H206.2Z"/>
    <path id="sail" d="M251.3 38.4001C252.2 39.3001 252.6 40.6 252.6 42.1C252.6 43.6 252.2 44.9 251.4 46.1C250.6 47.3 249.4 48.2 247.9 48.8C246.4 49.4 244.6 49.8 242.6 49.8C240.4 49.8 238.4 49.5001 236.8 48.9001C235.1 48.3001 233.6 47.4001 232.3 46.2001L233.3 44.3C234.7 45.5 236.1 46.4001 237.5 46.9001C238.9 47.4001 240.6 47.7001 242.6 47.7001C245 47.7001 246.8 47.2 248.1 46.3C249.4 45.3 250.1 44.0001 250.1 42.2001C250.1 41.2001 249.8 40.4001 249.1 39.7001C248.4 39.0001 247.6 38.6001 246.7 38.2001C245.7 37.8001 244.4 37.5 242.8 37.1C240.6 36.6 238.9 36.1 237.5 35.6C236.1 35.1 235 34.3 234.1 33.3C233.2 32.3 232.7 30.9001 232.7 29.2001C232.7 27.6001 233.1 26.3001 233.9 25.1C234.7 23.9 235.9 23 237.4 22.3C238.9 21.7 240.7 21.3 242.7 21.3C244.6 21.3 246.4 21.6001 248 22.2001C249.6 22.8001 251 23.7 252.2 24.9L251.2 26.8C249.9 25.6 248.6 24.8001 247.2 24.2001C245.8 23.7001 244.3 23.4 242.7 23.4C240.3 23.4 238.5 23.9 237.2 24.9C235.9 25.9 235.2 27.3001 235.2 29.1C235.2 30.6 235.8 31.8 236.9 32.5C238.1 33.3 239.7 33.9001 242 34.4001L243.1 34.7001C245.2 35.2001 246.9 35.7 248.1 36.1C249.4 36.8 250.4 37.5001 251.3 38.4001ZM272 30H274.4V49.5H272V45.8C271.4 47.1 270.6 48.1 269.4 48.8C268.2 49.5 266.8 49.8 265.2 49.8C263.4 49.8 261.9 49.4 260.6 48.6C259.3 47.8 258.3 46.6 257.5 45.1C256.8 43.6 256.4 41.8 256.4 39.8C256.4 37.8 256.8 36.0001 257.5 34.4001C258.2 32.9001 259.3 31.7 260.6 30.8C261.9 29.9 263.5 29.5 265.2 29.5C266.8 29.5 268.2 29.8 269.4 30.5C270.6 31.2 271.5 32.2 272.1 33.5V30H272ZM272 39.6C272 37 271.4 35 270.3 33.6C269.2 32.2 267.6 31.5 265.5 31.5C263.4 31.5 261.8 32.2001 260.7 33.7001C259.5 35.1001 259 37.1001 259 39.7001C259 42.2001 259.6 44.2 260.7 45.6C261.9 47 263.5 47.7001 265.6 47.7001C267.6 47.7001 269.2 47 270.4 45.6C271.5 44.2 272 42.2 272 39.6ZM280.6 24.9H283.8V21.9H280.6V24.9ZM281 49.5H283.4V30H281V49.5ZM289.9 20.8V49.5H292.3V20.8H289.9Z"/>
</svg>

<svg xmlns="http://www.w3.org/2000/svg" xmlns:xlink="http://www.w3.org/1999/xlink" width="294" height="69" viewBox="0 0 294 69"><circle fill="#FFFFFF" cx="34.3" cy="34.3" r="34.3"/><defs><circle id="SVGID_1_" cx="34.3" cy="34.3" r="32"/></defs><clipPath id="SVGID_00000026853921975058555850000015111386995679349950_"><use xlink:href="#SVGID_1_" overflow="visible"/></clipPath><g clip-path="url(#SVGID_00000026853921975058555850000015111386995679349950_)"><path fill="#38bdf7" d="M2.3 2.3h64v64h-64z"/><path d="m60.3 53-26-40v53.3h26V53z" fill="#0d4a6e"/><path d="M10.3 55.4v10.9h21.3v-40L10.3 55.4z" fill="#e0f2fe"/></g><path fill="#FFFFFF" d="M211.1 16.9v15.6c-.4-.8-1-1.6-1.6-2.2-2.3-2.6-5.4-4-8.9-4-2.9 0-5.5 1-7.6 2.7l.8-2.2h-9.6l-4.2 11-4.2-11h-15.3v.1c-1.4-.5-2.6-.8-3.8-.8-1.7 0-3.4.3-5 1l-.1.1c-.9.5-2.2 1.1-3.3 2.2v-2.6H123v.1c-1.4-.5-2.6-.8-3.8-.8-1.7 0-3.4.3-5 1l-.1.1c-1 .5-2.6 1.4-3.8 2.8-1 1-1.9 2.4-2.5 4-.6 1.4-.9 3-.9 4.8 0 1.2.1 2.4.4 3.4h-6.1V16.9h-9.4v34h18.5v-3.4c1.1 1.2 2.5 2.2 4 2.8 1.5.6 3.2 1 5 1 1.4 0 2.7-.2 3.8-.7v.3h17.3V35.8h4.2c-.2.9-.3 1.8-.3 2.8 0 1.8.3 3.5.9 4.9.6 1.4 1.4 2.8 2.5 3.9 1.1 1.3 2.5 2.3 4 2.9 1.5.6 3.2 1 5 1 1.4 0 2.7-.2 3.8-.7v.3h9.1V35.5l6 15.4h8.9l3.9-10.1c.8 6.4 5.8 10.6 12.8 10.6 4.4 0 7.2-1.8 9.8-4.6v4.1h9.1v-34h-9zm-88.4 23.6c-.2.4-.4.8-.7 1.2-.4.4-.7.6-1 .7-.5.2-1 .3-1.5.3s-1-.1-1.5-.3c-.4-.2-.7-.4-1-.7-.4-.5-.6-.9-.8-1.3-.2-.5-.3-1-.3-1.6s.1-1.1.3-1.6c.2-.4.4-.8.8-1.3.4-.4.7-.6 1-.7.5-.2 1-.3 1.5-.3s1 .1 1.5.3c.4.2.7.4 1 .7.4.5.6.9.8 1.3.2.5.3 1 .3 1.6-.1.7-.2 1.2-.4 1.7zm37.5 0c-.2.4-.4.8-.7 1.2-.4.4-.7.6-1 .7-.5.2-1 .3-1.5.3s-1-.1-1.5-.3c-.4-.2-.7-.4-.9-.7-.4-.5-.6-.9-.8-1.3-.2-.5-.3-1-.3-1.6s.1-1.1.3-1.6c.2-.4.4-.8.8-1.3.4-.4.7-.6 1-.7.5-.2 1-.3 1.5-.3s1 .1 1.5.3c.4.2.7.4 1 .7.4.5.6.9.8 1.3.2.5.3 1 .3 1.6-.2.7-.3 1.2-.5 1.7zm50.9 2.5-.2-.1h.2v.1z"/><path d="M98.9 44.4h9.1v4.3H94V19.2h4.9v25.2zm26.4-15.3h4.6v19.6h-4.6V46c-.6 1-1.5 1.8-2.6 2.3-1.1.6-2.3.8-3.5.8-1.5 0-2.9-.3-4.1-.8s-2.3-1.3-3.2-2.3c-.9-1-1.6-2.1-2.1-3.3s-.7-2.6-.7-4 .2-2.7.7-3.9 1.2-2.4 2.1-3.3c.9-1 2-1.7 3.2-2.3 1.2-.5 2.6-.8 4.1-.8 1.2 0 2.3.3 3.5.8 1.1.6 2 1.3 2.6 2.3v-2.4zm0 9.8c0-.8-.1-1.6-.4-2.4-.3-.8-.7-1.4-1.2-2s-1.1-1-1.8-1.3c-.7-.3-1.5-.5-2.4-.5s-1.7.2-2.4.5-1.3.8-1.8 1.3c-.5.6-.9 1.2-1.2 2-.3.8-.4 1.6-.4 2.4 0 .8.1 1.6.4 2.4.3.8.7 1.4 1.2 2s1.1 1 1.8 1.3c.7.3 1.5.5 2.4.5s1.7-.2 2.4-.5 1.3-.8 1.8-1.3c.5-.6.9-1.2 1.2-2 .2-.7.4-1.5.4-2.4zm37.5-9.8h4.6v19.6h-4.6V46c-.6 1-1.5 1.8-2.6 2.3-1.1.6-2.3.8-3.5.8-1.5 0-2.9-.3-4.1-.8-1.2-.5-2.3-1.3-3.2-2.3s-1.6-2.1-2.1-3.3-.7-2.6-.7-4 .2-2.7.7-3.9 1.2-2.4 2.1-3.3c.9-1 2-1.7 3.2-2.3 1.2-.5 2.6-.8 4.1-.8 1.2 0 2.3.3 3.5.8 1.1.6 2 1.3 2.6 2.3v-2.4zm0 9.8c0-.8-.1-1.6-.4-2.4-.3-.8-.7-1.4-1.2-2s-1.1-1-1.8-1.3-1.5-.5-2.4-.5-1.7.2-2.4.5-1.3.8-1.8 1.3c-.5.6-.9 1.2-1.2 2s-.4 1.6-.4 2.4c0 .8.1 1.6.4 2.4.3.8.7 1.4 1.2 2s1.1 1 1.8 1.3 1.5.5 2.4.5 1.7-.2 2.4-.5 1.3-.8 1.8-1.3c.5-.6.9-1.2 1.2-2 .2-.7.4-1.5.4-2.4zm50.6-19.7v29.5h4.6V19.2h-4.6zm-79.9 29.5h4.6V33.6h7.9v-4.5h-12.5v19.6zm52.4-19.6-5.8 15-5.8-15h-4.7l7.6 19.6h5.8l7.6-19.6h-4.7zm24.5 11.5h-15.3c0 1.7 1.7 5 5.8 5 3.5 0 5.9-3.1 5.9-3.1l3.1 2.4c-2.8 3-5.1 4.3-8.6 4.3-6.4 0-10.7-4-10.7-10.3 0-5.7 4.5-10.3 10.1-10.3 6.2 0 10.5 5.5 9.7 12zm-4.2-3.4c0-.4-.6-5-5.6-5s-5.5 4.6-5.5 5h11.1z"/><g><path fill="#FFFFFF" d="m248.7 34.8-.1-.1h-.1c-1-.3-2.8-.9-5.1-1.4l-1.2-.3c-2.1-.5-3.6-1-4.6-1.7-.9-.5-1-1.5-1-2.2 0-1.3.5-2.3 1.4-3.1 1.1-.8 2.6-1.2 4.6-1.2 1.3 0 2.7.2 3.9.7 1.4.6 2.5 1.3 3.6 2.3l1.4 1.3 2.3-4.5-.7-.7c-1.3-1.3-2.9-2.4-4.7-3-1.8-.7-3.7-1-5.8-1-2 0-4 .4-5.9 1.1-1.8.9-3.2 1.9-4.1 3.3-1 1.5-1.4 3-1.4 4.9 0 2 .6 3.8 1.8 5 1.1 1.3 2.4 2.1 4 2.7 1.6.6 3.4 1.1 5.4 1.5l.6.2c1.2.3 2.3.6 3 .9.9.4 1.5.7 2 1.2.4.4.6.8.6 1.5 0 1.3-.4 2.2-1.4 2.9-1.1.8-2.7 1.1-4.7 1.1-1.7 0-3.3-.2-4.6-.7-1.2-.4-2.4-1.2-3.8-2.3l-1.3-1.2-2.3 4.4.8.7c1.4 1.3 3.1 2.3 5 3 1.7.6 3.9 1 6.3 1 2 0 4-.4 5.8-1.1 1.8-.7 3.2-1.8 4.2-3.2 1-1.5 1.4-3 1.4-4.8 0-2-.6-3.6-1.7-4.7-1-.9-2.1-1.7-3.6-2.5zM270.7 29.6c-.2-.1-.4-.2-.6-.4-1.4-.8-3-1.2-4.9-1.2-2.1 0-3.9.5-5.4 1.6-1.6 1.1-2.8 2.5-3.6 4.2-.8 1.8-1.2 3.9-1.2 6s.4 4.2 1.3 6c1 1.8 2.2 3.1 3.6 4 1.5.9 3.3 1.4 5.3 1.4 1.9 0 3.5-.4 4.9-1.2.2-.1.3-.2.5-.3v1.2h5.2V28.5h-5.1v1.1zm-1.4 15c-.9 1.1-2.1 1.6-3.7 1.6-1.7 0-2.9-.5-3.8-1.6-.9-1.2-1.4-2.9-1.4-5 0-2.3.4-4 1.4-5.1l.1-.1c.8-1.1 2-1.6 3.7-1.6 1.7 0 2.9.5 3.7 1.6.9 1.2 1.4 2.9 1.4 5.1-.1 2.4-.6 4.1-1.4 5.1zM288.5 19.4h5.2v31.5h-5.2zM279.2 20.5h6v5.8h-6zM279.6 28.5h5.2v22.3h-5.2z"/></g><path d="M251.3 38.4c.9.9 1.3 2.2 1.3 3.7s-.4 2.8-1.2 4-2 2.1-3.5 2.7c-1.5.6-3.3 1-5.3 1-2.2 0-4.2-.3-5.8-.9-1.7-.6-3.2-1.5-4.5-2.7l1-1.9c1.4 1.2 2.8 2.1 4.2 2.6s3.1.8 5.1.8c2.4 0 4.2-.5 5.5-1.4 1.3-1 2-2.3 2-4.1 0-1-.3-1.8-1-2.5s-1.5-1.1-2.4-1.5c-1-.4-2.3-.7-3.9-1.1-2.2-.5-3.9-1-5.3-1.5s-2.5-1.3-3.4-2.3-1.4-2.4-1.4-4.1c0-1.6.4-2.9 1.2-4.1s2-2.1 3.5-2.8c1.5-.6 3.3-1 5.3-1 1.9 0 3.7.3 5.3.9s3 1.5 4.2 2.7l-1 1.9c-1.3-1.2-2.6-2-4-2.6-1.4-.5-2.9-.8-4.5-.8-2.4 0-4.2.5-5.5 1.5s-2 2.4-2 4.2c0 1.5.6 2.7 1.7 3.4 1.2.8 2.8 1.4 5.1 1.9l1.1.3c2.1.5 3.8 1 5 1.4 1.3.7 2.3 1.4 3.2 2.3zM272 30h2.4v19.5H272v-3.7c-.6 1.3-1.4 2.3-2.6 3s-2.6 1-4.2 1c-1.8 0-3.3-.4-4.6-1.2-1.3-.8-2.3-2-3.1-3.5-.7-1.5-1.1-3.3-1.1-5.3s.4-3.8 1.1-5.4c.7-1.5 1.8-2.7 3.1-3.6s2.9-1.3 4.6-1.3c1.6 0 3 .3 4.2 1s2.1 1.7 2.7 3V30h-.1zm0 9.6c0-2.6-.6-4.6-1.7-6-1.1-1.4-2.7-2.1-4.8-2.1-2.1 0-3.7.7-4.8 2.2-1.2 1.4-1.7 3.4-1.7 6 0 2.5.6 4.5 1.7 5.9 1.2 1.4 2.8 2.1 4.9 2.1 2 0 3.6-.7 4.8-2.1 1.1-1.4 1.6-3.4 1.6-6zm8.6-14.7h3.2v-3h-3.2v3zm.4 24.6h2.4V30H281v19.5zm8.9-28.7v28.7h2.4V20.8h-2.4z"/></svg>
